X:180
T: Kilcummin Lass
S: "Johnny O'Leary of Sliabh Luachra" (#324)
Z: B.Black
L: 1/8
M: 2/4
Q: 280
R: polka
K: D
AB c/B/A|ed/e/ cB|AB c/B/A|f2 fe/f/|
AB c/B/A|eA cB/c/|AB cA|d2 d2 :|
fe/f/ ed|fe/f/ ed/e/|A2 c/B/A|g2 g2|
fg/f/ ed|fg/f/ ed/e/|AB ce|d2 d2 :|
